img/svg/about/cash.svg

<svg width="24" height="24" viewBox="0 0 24 24" fill="none" xmlns="http://www.w3.org/2000/svg">
<path d="M4.5 5.5H4V6C4 6.66304 3.73661 7.29893 3.26777 7.76777C2.79893 8.23661 2.16304 8.5 1.5 8.5H1V9V15V15.5H1.5C2.16304 15.5 2.79893 15.7634 3.26777 16.2322C3.73661 16.7011 4 17.337 4 18V18.5H4.5H19.5H20V18C20 17.337 20.2634 16.7011 20.7322 16.2322C21.2011 15.7634 21.837 15.5 22.5 15.5H23V15V9V8.5H22.5C21.837 8.5 21.2011 8.23661 20.7322 7.76777C20.2634 7.29893 20 6.66304 20 6V5.5H19.5H4.5ZM13.7678 13.7678C13.2989 14.2366 12.663 14.5 12 14.5C11.337 14.5 10.7011 14.2366 10.2322 13.7678C9.76339 13.2989 9.5 12.663 9.5 12C9.5 11.337 9.76339 10.7011 10.2322 10.2322C10.7011 9.76339 11.337 9.5 12 9.5C12.663 9.5 13.2989 9.76339 13.7678 10.2322C14.2366 10.7011 14.5 11.337 14.5 12C14.5 12.663 14.2366 13.2989 13.7678 13.7678ZM0.5 6C0.5 5.73478 0.605357 5.48043 0.792893 5.29289C0.98043 5.10536 1.23478 5 1.5 5H22.5C22.7652 5 23.0196 5.10536 23.2071 5.29289C23.3946 5.48043 23.5 5.73478 23.5 6V18C23.5 18.2652 23.3946 18.5196 23.2071 18.7071C23.0196 18.8946 22.7652 19 22.5 19H1.5C1.23478 19 0.98043 18.8946 0.792894 18.7071C0.605357 18.5196 0.5 18.2652 0.5 18V6Z" fill="#FBFBFB" stroke="#FBFBFB"/>
</svg>

<svg width="24" height="24" fill="none" xmlns="http://www.w3.org/2000/svg"><path d="M4.5 5.5H4V6a2.5 2.5 0 01-2.5 2.5H1v7h.5A2.5 2.5 0 014 18v.5h16V18a2.5 2.5 0 012.5-2.5h.5v-7h-.5A2.5 2.5 0 0120 6v-.5H4.5zm9.268 8.268a2.5 2.5 0 11-3.536-3.537 2.5 2.5 0 013.536 3.537zM.5 6a1 1 0 011-1h21a1 1 0 011 1v12a1 1 0 01-1 1h-21a1 1 0 01-1-1V6z" fill="#FBFBFB" stroke="#FBFBFB"/></svg>
